X: 2
T: Welcome to the Town again
B: Peacocks' Tunes (c. 1805)
L: 1/8
M:C
Z:Valerio M. Pelliccioni
K: G
f|g2 dc B2 Gc|(3Bcd GB cAAf|g2 dc B2 Gc|(3Bcd Ac BGG:||
c2|BGdG eGdG|Bd e/d/c/B/ cAAc|BGdG eGdG|(3Bcd Ac BGGc|
BGdG eGdG|Bd {e}dc/B/ cAAc|BdcB cdef|gdec BGG]]

